src/components/LandingPage/images/ProductFeatureIcons/analytics.svg

<svg xmlns="http://www.w3.org/2000/svg" width="31" height="27" fill="none" viewBox="0 0 31 27"><path fill="#1839D9" fill-rule="evenodd" d="M15.2775 5.19727C14.9992 6.08707 14.8486 7.0377 14.8486 8.02526C14.8486 10.1475 15.8815 12.2953 17.0723 14.1611V24.9736C17.0723 25.5483 16.6823 26.0141 16.2012 26.0141H13.4433C12.9622 26.0141 12.5723 25.5483 12.5723 24.9736V6.23774C12.5723 5.66312 12.9622 5.19727 13.4433 5.19727H15.2775Z" clip-rule="evenodd"/><path fill="url(#paint0_linear)" fill-rule="evenodd" d="M15.2775 5.19727C14.9992 6.08707 14.8486 7.0377 14.8486 8.02526C14.8486 10.1475 15.8815 12.2953 17.0723 14.1611V24.9736C17.0723 25.5483 16.6823 26.0141 16.2012 26.0141H13.4433C12.9622 26.0141 12.5723 25.5483 12.5723 24.9736V6.23774C12.5723 5.66312 12.9622 5.19727 13.4433 5.19727H15.2775Z" clip-rule="evenodd"/><path fill="#FF4600" fill-rule="evenodd" d="M7.40096 9.73682H9.46428C10.1372 9.73682 10.6826 10.4401 10.6826 11.3075V24.7776C10.6826 25.6452 10.1372 26.3484 9.46428 26.3484H7.40096C6.7281 26.3484 6.18262 25.6452 6.18262 24.7776V11.3075C6.18262 10.4401 6.7281 9.73682 7.40096 9.73682Z" clip-rule="evenodd"/><path fill="url(#paint1_linear)" fill-rule="evenodd" d="M7.40096 9.73682H9.46428C10.1372 9.73682 10.6826 10.4401 10.6826 11.3075V24.7776C10.6826 25.6452 10.1372 26.3484 9.46428 26.3484H7.40096C6.7281 26.3484 6.18262 25.6452 6.18262 24.7776V11.3075C6.18262 10.4401 6.7281 9.73682 7.40096 9.73682Z" clip-rule="evenodd"/><path fill="#F7A501" fill-rule="evenodd" d="M1.80599 13.9511H3.27604C4.11272 13.9511 4.79102 14.6402 4.79102 15.4902V24.6636C4.79102 25.5136 4.11272 26.2027 3.27604 26.2027H1.80599C0.969311 26.2027 0.291016 25.5136 0.291016 24.6636V15.4902C0.291016 14.6402 0.969311 13.9511 1.80599 13.9511Z" clip-rule="evenodd"/><path fill="url(#paint2_linear)" fill-rule="evenodd" d="M1.80599 13.9511H3.27604C4.11272 13.9511 4.79102 14.6402 4.79102 15.4902V24.6636C4.79102 25.5136 4.11272 26.2027 3.27604 26.2027H1.80599C0.969311 26.2027 0.291016 25.5136 0.291016 24.6636V15.4902C0.291016 14.6402 0.969311 13.9511 1.80599 13.9511Z" clip-rule="evenodd"/><path fill="#C6CBCD" fill-rule="evenodd" d="M20.2656 21.9842C20.2656 21.0683 20.3476 18.7485 20.3476 18.7485C20.3476 18.7485 22.5707 18.9076 23.3255 18.9076C24.0548 18.9076 26.1636 18.8509 26.1636 18.8509C26.1636 18.8509 26.3308 19.8723 26.2659 22.0866C26.201 24.3009 25.0454 24.8182 23.3255 24.8182C21.6056 24.8182 20.2656 23.6164 20.2656 21.9842Z" clip-rule="evenodd"/><path fill="url(#paint3_linear)" fill-rule="evenodd" d="M20.2656 21.9842C20.2656 21.0683 20.3476 18.7485 20.3476 18.7485C20.3476 18.7485 22.5707 18.9076 23.3255 18.9076C24.0548 18.9076 26.1636 18.8509 26.1636 18.8509C26.1636 18.8509 26.3308 19.8723 26.2659 22.0866C26.201 24.3009 25.0454 24.8182 23.3255 24.8182C21.6056 24.8182 20.2656 23.6164 20.2656 21.9842Z" clip-rule="evenodd"/><path fill="#FFBB26" fill-rule="evenodd" d="M16.0586 8.28068C16.0586 4.16288 19.309 0.824707 23.3186 0.824707C27.3282 0.824707 30.5786 4.16288 30.5786 8.28068C30.5786 11.7216 28.0828 14.4201 26.2188 16.4637C26.0055 16.6975 26.599 18.9855 25.9769 19.5351C25.3451 20.0934 21.0455 20.1496 20.4022 19.462C20.0488 19.0842 20.5293 16.8712 20.2453 16.4861C18.9203 14.6896 16.0586 11.4505 16.0586 8.28068Z" clip-rule="evenodd"/><path fill="url(#paint4_linear)" fill-rule="evenodd" d="M16.0586 8.28068C16.0586 4.16288 19.309 0.824707 23.3186 0.824707C27.3282 0.824707 30.5786 4.16288 30.5786 8.28068C30.5786 11.7216 28.0828 14.4201 26.2188 16.4637C26.0055 16.6975 26.599 18.9855 25.9769 19.5351C25.3451 20.0934 21.0455 20.1496 20.4022 19.462C20.0488 19.0842 20.5293 16.8712 20.2453 16.4861C18.9203 14.6896 16.0586 11.4505 16.0586 8.28068Z" clip-rule="evenodd"/><path fill="#F7A501" fill-rule="evenodd" d="M23.7443 0.858398C23.7443 0.858398 27.3147 3.86654 27.4196 7.62292C27.581 13.3981 25.2603 13.1999 23.5374 16.2899C22.7041 17.7842 22.6006 19.9585 22.6006 19.9585C22.6006 19.9585 23.6574 20.1476 24.5635 19.9837C25.4697 19.8199 26.2248 19.5508 26.2248 19.5508C26.2248 19.5508 26.1073 16.93 26.7794 15.8782C27.3799 14.9384 31.5431 12.3827 30.4504 6.66477C30.2023 5.36713 29.0867 3.27934 27.5341 2.1837C25.8571 1.00034 23.7443 0.858398 23.7443 0.858398Z" clip-rule="evenodd"/><path fill="url(#paint5_linear)" fill-rule="evenodd" d="M23.7443 0.858398C23.7443 0.858398 27.3147 3.86654 27.4196 7.62292C27.581 13.3981 25.2603 13.1999 23.5374 16.2899C22.7041 17.7842 22.6006 19.9585 22.6006 19.9585C22.6006 19.9585 23.6574 20.1476 24.5635 19.9837C25.4697 19.8199 26.2248 19.5508 26.2248 19.5508C26.2248 19.5508 26.1073 16.93 26.7794 15.8782C27.3799 14.9384 31.5431 12.3827 30.4504 6.66477C30.2023 5.36713 29.0867 3.27934 27.5341 2.1837C25.8571 1.00034 23.7443 0.858398 23.7443 0.858398Z" clip-rule="evenodd"/><path fill="#FFE4AE" fill-rule="evenodd" d="M19.0552 3.69528C20.6663 2.10412 23.098 1.8538 23.5597 2.32121C24.0214 2.78862 22.3381 3.79681 20.7271 5.38797C19.1161 6.97912 17.8613 8.68411 17.3997 8.2167C16.938 7.74929 17.4443 5.28643 19.0552 3.69528Z" clip-rule="evenodd"/><path fill="url(#paint6_linear)" fill-rule="evenodd" d="M19.0552 3.69528C20.6663 2.10412 23.098 1.8538 23.5597 2.32121C24.0214 2.78862 22.3381 3.79681 20.7271 5.38797C19.1161 6.97912 17.8613 8.68411 17.3997 8.2167C16.938 7.74929 17.4443 5.28643 19.0552 3.69528Z" clip-rule="evenodd"/><defs><linearGradient id="paint0_linear" x1="14.822" x2="14.822" y1="5.197" y2="26.014" gradientUnits="userSpaceOnUse"><stop stop-color="#57AEFF"/><stop offset="1" stop-color="#fff" stop-opacity="0"/></linearGradient><linearGradient id="paint1_linear" x1="8.433" x2="8.433" y1="9.737" y2="26.348" gradientUnits="userSpaceOnUse"><stop stop-color="#FF702D"/><stop offset=".682" stop-color="#fff" stop-opacity="0"/></linearGradient><linearGradient id="paint2_linear" x1="2.541" x2="2.541" y1="13.951" y2="26.203" gradientUnits="userSpaceOnUse"><stop stop-color="#FFCF70"/><stop offset="1" stop-color="#fff" stop-opacity="0"/></linearGradient><linearGradient id="paint3_linear" x1="20.12" x2="26.344" y1="22.065" y2="22.392" gradientUnits="userSpaceOnUse"><stop stop-color="#565656"/><stop offset="1" stop-color="#fff" stop-opacity="0"/></linearGradient><linearGradient id="paint4_linear" x1="23.319" x2="23.319" y1=".825" y2="19.966" gradientUnits="userSpaceOnUse"><stop stop-color="#FFE299"/><stop offset=".682" stop-color="#fff" stop-opacity="0"/></linearGradient><linearGradient id="paint5_linear" x1="26.616" x2="26.616" y1=".858" y2="20.05" gradientUnits="userSpaceOnUse"><stop stop-color="#FFE29A"/><stop offset=".677" stop-color="#fff" stop-opacity="0"/></linearGradient><linearGradient id="paint6_linear" x1="20.437" x2="20.437" y1="2.111" y2="8.295" gradientUnits="userSpaceOnUse"><stop stop-color="#fff"/><stop offset=".604" stop-color="#fff" stop-opacity="0"/></linearGradient></defs></svg>

<svg fill="none" viewBox="0 0 31 27"><path fill="#1839D9" fill-rule="evenodd" d="M15.277 5.197a9.463 9.463 0 00-.428 2.828c0 2.123 1.033 4.27 2.223 6.136v10.813c0 .574-.39 1.04-.87 1.04h-2.759c-.48 0-.87-.466-.87-1.04V6.238c0-.575.39-1.04.87-1.04h1.835z" clip-rule="evenodd"/><path fill="url(#paint0_linear)" fill-rule="evenodd" d="M15.277 5.197a9.463 9.463 0 00-.428 2.828c0 2.123 1.033 4.27 2.223 6.136v10.813c0 .574-.39 1.04-.87 1.04h-2.759c-.48 0-.87-.466-.87-1.04V6.238c0-.575.39-1.04.87-1.04h1.835z" clip-rule="evenodd"/><path fill="#FF4600" fill-rule="evenodd" d="M7.401 9.737h2.063c.673 0 1.219.703 1.219 1.57v13.47c0 .868-.546 1.571-1.219 1.571H7.401c-.673 0-1.218-.703-1.218-1.57v-13.47c0-.868.545-1.571 1.218-1.571z" clip-rule="evenodd"/><path fill="url(#paint1_linear)" fill-rule="evenodd" d="M7.401 9.737h2.063c.673 0 1.219.703 1.219 1.57v13.47c0 .868-.546 1.571-1.219 1.571H7.401c-.673 0-1.218-.703-1.218-1.57v-13.47c0-.868.545-1.571 1.218-1.571z" clip-rule="evenodd"/><path fill="#F7A501" fill-rule="evenodd" d="M1.806 13.951h1.47c.837 0 1.515.69 1.515 1.54v9.173c0 .85-.678 1.539-1.515 1.539h-1.47c-.837 0-1.515-.69-1.515-1.54V15.49c0-.85.678-1.539 1.515-1.539z" clip-rule="evenodd"/><path fill="url(#paint2_linear)" fill-rule="evenodd" d="M1.806 13.951h1.47c.837 0 1.515.69 1.515 1.54v9.173c0 .85-.678 1.539-1.515 1.539h-1.47c-.837 0-1.515-.69-1.515-1.54V15.49c0-.85.678-1.539 1.515-1.539z" clip-rule="evenodd"/><path fill="#C6CBCD" fill-rule="evenodd" d="M20.266 21.984c0-.916.082-3.236.082-3.236s2.223.16 2.978.16c.729 0 2.838-.057 2.838-.057s.167 1.021.102 3.236c-.065 2.214-1.22 2.731-2.94 2.731s-3.06-1.202-3.06-2.834z" clip-rule="evenodd"/><path fill="url(#paint3_linear)" fill-rule="evenodd" d="M20.266 21.984c0-.916.082-3.236.082-3.236s2.223.16 2.978.16c.729 0 2.838-.057 2.838-.057s.167 1.021.102 3.236c-.065 2.214-1.22 2.731-2.94 2.731s-3.06-1.202-3.06-2.834z" clip-rule="evenodd"/><path fill="#FFBB26" fill-rule="evenodd" d="M16.059 8.28c0-4.117 3.25-7.455 7.26-7.455s7.26 3.338 7.26 7.456c0 3.44-2.496 6.14-4.36 8.183-.213.234.38 2.521-.242 3.071-.632.558-4.931.615-5.575-.073-.353-.378.127-2.59-.157-2.976-1.325-1.796-4.186-5.036-4.186-8.205z" clip-rule="evenodd"/><path fill="url(#paint4_linear)" fill-rule="evenodd" d="M16.059 8.28c0-4.117 3.25-7.455 7.26-7.455s7.26 3.338 7.26 7.456c0 3.44-2.496 6.14-4.36 8.183-.213.234.38 2.521-.242 3.071-.632.558-4.931.615-5.575-.073-.353-.378.127-2.59-.157-2.976-1.325-1.796-4.186-5.036-4.186-8.205z" clip-rule="evenodd"/><path fill="#F7A501" fill-rule="evenodd" d="M23.744.858s3.57 3.009 3.676 6.765c.161 5.775-2.16 5.577-3.883 8.667-.833 1.494-.936 3.669-.936 3.669s1.056.189 1.963.025c.906-.164 1.66-.433 1.66-.433s-.117-2.621.555-3.673c.6-.94 4.764-3.495 3.671-9.213-.248-1.298-1.363-3.386-2.916-4.481C25.857 1 23.744.858 23.744.858z" clip-rule="evenodd"/><path fill="url(#paint5_linear)" fill-rule="evenodd" d="M23.744.858s3.57 3.009 3.676 6.765c.161 5.775-2.16 5.577-3.883 8.667-.833 1.494-.936 3.669-.936 3.669s1.056.189 1.963.025c.906-.164 1.66-.433 1.66-.433s-.117-2.621.555-3.673c.6-.94 4.764-3.495 3.671-9.213-.248-1.298-1.363-3.386-2.916-4.481C25.857 1 23.744.858 23.744.858z" clip-rule="evenodd"/><path fill="#FFE4AE" fill-rule="evenodd" d="M19.055 3.695c1.611-1.59 4.043-1.841 4.505-1.374.461.468-1.222 1.476-2.833 3.067-1.61 1.591-2.866 3.296-3.327 2.829-.462-.468.044-2.93 1.655-4.522z" clip-rule="evenodd"/><path fill="url(#paint6_linear)" fill-rule="evenodd" d="M19.055 3.695c1.611-1.59 4.043-1.841 4.505-1.374.461.468-1.222 1.476-2.833 3.067-1.61 1.591-2.866 3.296-3.327 2.829-.462-.468.044-2.93 1.655-4.522z" clip-rule="evenodd"/><defs><linearGradient id="paint0_linear" x1="14.822" x2="14.822" y1="5.197" y2="26.014" gradientUnits="userSpaceOnUse"><stop stop-color="#57AEFF"/><stop offset="1" stop-color="#fff" stop-opacity="0"/></linearGradient><linearGradient id="paint1_linear" x1="8.433" x2="8.433" y1="9.737" y2="26.348" gradientUnits="userSpaceOnUse"><stop stop-color="#FF702D"/><stop offset=".682" stop-color="#fff" stop-opacity="0"/></linearGradient><linearGradient id="paint2_linear" x1="2.541" x2="2.541" y1="13.951" y2="26.203" gradientUnits="userSpaceOnUse"><stop stop-color="#FFCF70"/><stop offset="1" stop-color="#fff" stop-opacity="0"/></linearGradient><linearGradient id="paint3_linear" x1="20.12" x2="26.344" y1="22.065" y2="22.392" gradientUnits="userSpaceOnUse"><stop stop-color="#565656"/><stop offset="1" stop-color="#fff" stop-opacity="0"/></linearGradient><linearGradient id="paint4_linear" x1="23.319" x2="23.319" y1=".825" y2="19.966" gradientUnits="userSpaceOnUse"><stop stop-color="#FFE299"/><stop offset=".682" stop-color="#fff" stop-opacity="0"/></linearGradient><linearGradient id="paint5_linear" x1="26.616" x2="26.616" y1=".858" y2="20.05" gradientUnits="userSpaceOnUse"><stop stop-color="#FFE29A"/><stop offset=".677" stop-color="#fff" stop-opacity="0"/></linearGradient><linearGradient id="paint6_linear" x1="20.437" x2="20.437" y1="2.111" y2="8.295" gradientUnits="userSpaceOnUse"><stop stop-color="#fff"/><stop offset=".604" stop-color="#fff" stop-opacity="0"/></linearGradient></defs></svg>
